X:1     %Music
T:Land of the Silver Birch
B:Singing Together, Autumn 1971, BBC Publications
F:http://www.folkinfo.org/songs
M:4/4     %Meter
L:1/8     %
K:G
E2 EE BB B2 |E2 EE B2 B2 |
w:Land of the sil-ver birch, home of the bea-ver, 
e2 de dB G2 |A G2 A B4 |
w:Where still the might-y moose wan-ders at will. 
e2 de dB G2 |A G2 A BG E2 |
w:Blue lake and rock-y shore, I will re-turn once more. 
EE/E/ EG EE/E/ EG |EE/E/ EG (E4-|E2G2 E4) |]
w:Hi-a-ya, hi-ya. Hi-a-ya, hi-ya, Hi-a-ya, hi-ya, Ah!___